packages/components/icon/src/assets/icons/phone.svg

<svg width="24" height="24" viewBox="0 0 24 24" fill="none" xmlns="http://www.w3.org/2000/svg">
<path fill-rule="evenodd" clip-rule="evenodd" d="M16.1033 20.9411C13.0516 19.9287 10.3905 18.2872 8.11983 16.0165C5.84916 13.7459 4.20765 11.0847 3.19525 8.03306C3.06508 7.64256 3 7.24484 3 6.83988C3 6.34814 3.09401 5.87087 3.28202 5.40806C3.47004 4.94525 3.7376 4.54029 4.08471 4.19318L4.71384 3.58574C5.10434 3.19525 5.56715 3 6.10227 3C6.42046 3 6.72779 3.07593 7.02428 3.22779C7.32077 3.37965 7.56302 3.60021 7.75103 3.88946L9.48657 6.47107C9.70351 6.78926 9.81198 7.15082 9.81198 7.55579C9.81198 8.10537 9.61674 8.57541 9.22624 8.96591L8.90083 9.29132C8.71281 9.47934 8.6188 9.71074 8.6188 9.98554C8.6188 10.1157 8.65496 10.2676 8.72727 10.4411C9.2624 11.5114 9.95661 12.4731 10.8099 13.3264C11.6632 14.1798 12.625 14.874 13.6952 15.4091C13.8688 15.4814 14.0207 15.5176 14.1508 15.5176C14.4256 15.5176 14.657 15.4236 14.845 15.2355L15.1705 14.9101C15.561 14.5196 16.031 14.3244 16.5806 14.3244C16.9711 14.3244 17.3326 14.4329 17.6653 14.6498L20.2469 16.3853C20.5362 16.5733 20.7567 16.8156 20.9086 17.1121C21.0604 17.4086 21.1364 17.7159 21.1364 18.0341C21.1364 18.5692 20.9411 19.032 20.5506 19.4225L19.9432 20.0517C19.5961 20.3988 19.1911 20.6663 18.7283 20.8543C18.2655 21.0424 17.7882 21.1364 17.2965 21.1364C16.8915 21.1364 16.4938 21.0713 16.1033 20.9411Z" fill="currentColor"/>
</svg>

<svg viewBox="0 0 24 24" fill="none" xmlns="http://www.w3.org/2000/svg"><path fill-rule="evenodd" clip-rule="evenodd" d="M16.103 20.941a20.082 20.082 0 0 1-7.983-4.924 20.082 20.082 0 0 1-4.925-7.984 3.75 3.75 0 0 1 .087-2.625c.188-.463.456-.868.803-1.215l.629-.607c.39-.39.853-.586 1.388-.586.318 0 .626.076.922.228.297.152.539.372.727.661l1.736 2.582c.217.318.325.68.325 1.085 0 .55-.195 1.02-.586 1.41l-.325.325a.943.943 0 0 0-.282.695c0 .13.036.282.108.455a11.036 11.036 0 0 0 2.083 2.885 11.034 11.034 0 0 0 2.885 2.083c.174.072.326.109.456.109a.943.943 0 0 0 .694-.283l.325-.325c.391-.39.861-.586 1.41-.586.391 0 .753.109 1.085.326l2.582 1.735c.29.188.51.43.662.727.151.297.227.604.227.922a1.9 1.9 0 0 1-.585 1.389l-.608.629a3.633 3.633 0 0 1-1.215.802 3.77 3.77 0 0 1-2.625.087Z" fill="currentColor"/></svg>
